!!!OTL: Imperatrix virgo gloriosa
**kern
*staff1
=1-
*clefF4
*k[]
*met(c|)
*M2/2
1F
1C
=2
1.D
2E\
=3
1.F
2G\
=4
2F\
2C/
2F\
2D\
=5
2F\
2C/
2D\
2C/
=6
1C
2F\
2D\
1C
=7:|!
!!linebreak:original
2G\
2C/
2G\
2c\
=8
1G
1C
=9
2G\
2G\
2F\
2G\
=10
2A\
2D\
1E
1AA
=11
!!linebreak:original
2C/
2G\
2C/
2F\
=12
1G
1C
=13
2F\
2C/
2D\
2C/
=14
2C/
2D\
1AA
=15
!LO:TX:Y=-40:t=P
1D
2F\
2C/
=16
2D\
2C/
1C
=17
!LO:TX:Y=-200:t=P
2F\
2D\
0C
==
*-
!!title: @{OTL}, @{GTL}, ed. @{ENC}
!!!pag:
!!!GTL: Hymnbook D
!!!EFL: 
!!!YEM: Creative Commons CC/BY/NC/SA 4.0
!!!ENC: Marcin Konik
!!!END: 2015-0m-dd
!!!EED: Marcin Konik
!!!EEV: 
!!!ONB: Encoded in vim by Marcin Konik
!!!CharacterEncoding: utf-8
!!!RDF**kern: l=long note in original notation
!!!RDF**kern: i=editorial accidental
!!muse2ps: z14jc180F
!!!COM: Anonim
!!!CDT: [?]
!!!TXO: Polish
!!!ODT: 
!!!GTL: Hymnbook D
!!!ARL: Opactwo św. Wojciecha, Staniątki 
!!!voices:	1
